logos/blitzjs.svg

<?xml version="1.0" encoding="UTF-8"?>
<svg width="512px" height="203px" viewBox="0 0 512 203" version="1.1" xmlns="http://www.w3.org/2000/svg" xmlns:xlink="http://www.w3.org/1999/xlink" preserveAspectRatio="xMidYMid">
    <title>Blitz</title>
    <g fill="#6700EB">
				<path d="M199.667546,174.986787 C198.924426,174.986787 198.340629,174.773969 197.916156,174.349495 C197.491682,173.925022 197.278863,173.393557 197.278863,172.757428 L197.278863,59.5389921 C197.278863,57.734339 198.128974,56.8320124 199.826869,56.8320124 L238.521433,56.8320124 C253.172174,56.8320124 264.4248,59.485962 272.280472,64.7938611 C280.136144,69.9955837 284.063399,77.5859888 284.063399,87.5648439 C284.063399,93.8282161 282.417836,99.1361153 279.127873,103.488658 C275.836748,107.735024 270.529081,111.185123 263.203711,113.839073 C262.779237,113.945249 262.566419,114.210633 262.566419,114.635339 C262.566419,114.953752 262.779237,115.166106 263.203711,115.272282 C271.059383,117.395581 276.950846,120.739039 280.879264,125.304749 C284.913509,129.869296 286.93005,135.866587 286.93005,143.297785 C286.93005,153.914281 282.9493,161.875781 274.9878,167.183448 C267.025138,172.385287 255.348039,174.986787 239.95534,174.986787 L199.667546,174.986787 Z M240.750792,108.26579 C247.438871,108.26579 253.118679,106.779551 257.789053,103.807187 C262.460591,100.834708 264.795778,96.1637522 264.795778,89.7942034 C264.795778,83.4246547 262.460591,78.594492 257.789053,75.3035992 C253.224507,72.0127064 246.90857,70.3671436 238.840079,70.3671436 L218.935166,70.3671436 C217.343099,70.3671436 216.546484,71.0572333 216.546484,72.4372964 L216.546484,106.036431 C216.546484,107.52267 217.131444,108.26579 218.299037,108.26579 L240.750792,108.26579 Z M239.158725,161.451307 C257.630893,161.451307 266.865815,155.02838 266.865815,142.183687 C266.865815,135.495608 264.477132,130.506588 259.70093,127.215462 C254.923565,123.924337 248.606465,122.278774 240.750792,122.278774 L219.094489,122.278774 C218.139714,122.278774 217.448927,122.438097 217.024453,122.756743 C216.705807,123.075389 216.546484,123.605691 216.546484,124.348811 L216.546484,159.062625 C216.546484,160.654692 217.131444,161.451307 218.299037,161.451307 L239.158725,161.451307 Z M324.046502,171.961976 C324.046502,173.129569 323.781351,173.925022 323.25105,174.350658 C322.825413,174.775132 321.976466,174.986787 320.703044,174.986787 L309.874893,174.986787 C308.813127,174.986787 308.070007,174.827464 307.645533,174.509981 C307.221059,174.084345 307.008241,173.39472 307.008241,172.438782 L307.326887,59.2211601 C307.326887,57.6287439 308.016512,56.8325939 309.396924,56.8325939 L321.976466,56.8325939 C322.637017,56.8325939 324.046502,56.8379434 324.046502,56.8379434 L324.046502,59.2211601 L324.046502,171.961976 Z M443.68647,174.547195 C444.005116,174.865842 444.588913,175.025165 445.437861,175.025165 L509.611317,175.025165 C511.203385,175.025165 512,174.282045 512,172.795805 L512,165.470434 L512,163.559721 L509.929964,163.559721 L465.980065,163.559721 C465.131118,163.559721 464.705481,163.29457 464.705481,162.763106 C464.705481,162.44446 464.864804,162.073481 465.18345,161.649007 L509.611317,102.889859 C510.778911,101.085206 511.362708,99.4927895 511.362708,98.1127265 L511.362708,92.3801209 L511.362708,90.6221017 C511.362708,90.6221017 510.155574,90.6284979 509.611317,90.6284979 L448.463835,90.6284979 C447.296242,90.6284979 446.712445,91.2654412 446.712445,92.539444 L446.712445,99.7051427 C446.712445,100.554323 446.818273,101.138236 447.031091,101.456766 C447.348574,101.775179 447.933534,101.934386 448.782481,101.934386 L488.432984,101.934386 C489.387759,101.934386 489.865728,102.199769 489.865728,102.730652 L489.387759,103.686009 L445.278538,162.44446 C444.42959,163.612053 443.845793,164.514496 443.527147,165.151788 C443.315492,165.78908 443.208501,166.584533 443.208501,167.540471 L443.208501,172.795805 C443.208501,173.644753 443.367824,174.228549 443.68647,174.547195 Z M363.406269,56.8325939 L346.526168,56.8325939 L346.526168,83.9299529 C355.84831,83.9299529 363.406269,76.3728079 363.406269,67.0506661 L363.406269,56.8325939 Z M363.403943,171.949183 C363.403943,173.116777 363.138792,173.913392 362.607328,174.337866 C362.182854,174.76234 361.386239,174.975158 360.218645,174.975158 L349.390494,174.975158 C348.328728,174.975158 347.585608,174.815835 347.161134,174.497189 C346.73666,174.072715 346.525005,173.381928 346.525005,172.427152 L346.525005,92.967174 C346.525005,92.1178775 346.684328,91.5340807 347.001811,91.215551 C347.320457,90.7909609 347.904254,90.5786077 348.754365,90.5786077 L363.722589,90.5786077 L363.403943,171.949183 Z M410.91128,104.329348 C410.91128,103.267699 411.389249,102.736932 412.344025,102.736932 L431.453485,102.736932 C432.939725,102.736932 433.682844,102.099989 433.682844,100.826102 L433.682844,92.3865171 L433.682844,90.6348941 L431.770968,90.6348941 L412.662671,90.6348941 C411.707895,90.6348941 411.229926,90.1571576 411.229926,89.2016846 L411.229926,64.5198721 L411.229926,61.9719828 L409.15989,61.9719828 L398.172415,61.9719828 C397.110649,61.9719828 396.473357,62.7151026 396.261702,64.2013423 L394.350988,89.2016846 C394.350988,90.1571576 393.926515,90.6348941 393.076404,90.6348941 L380.337539,90.6348941 C379.064118,90.6348941 378.426826,91.2186909 378.426826,92.3865171 L378.426826,100.826102 C378.426826,102.099989 379.11645,102.736932 380.496862,102.736932 L392.440275,102.736932 C393.500878,102.736932 394.032342,103.373875 394.032342,104.647762 L394.032342,155.126067 C394.032342,161.919973 395.730237,166.962489 399.12719,170.253614 C402.525307,173.438912 407.727145,175.030979 414.732707,175.030979 C422.163905,175.030979 427.578563,174.765829 430.975516,174.234364 C432.567583,173.915718 433.364198,173.014438 433.364198,171.528198 L433.364198,164.680797 L433.364198,162.770083 L431.453485,162.770083 L421.261463,162.770083 C417.652854,162.770083 414.999021,161.919973 413.299963,160.222078 C411.707895,158.52302 410.91128,155.444713 410.91128,150.985994 L410.91128,104.329348 Z"></path>
				<path d="M33.4258234,101.049271 C46.1458487,101.049271 58.1261267,107.027606 65.7744463,117.190904 L98.7461735,161.008227 C99.3692777,161.836241 99.4632434,162.948014 98.9879491,163.869063 L79.9819905,200.692454 C79.0701278,202.460126 76.6257404,202.667129 75.4287243,201.079714 L1.42108547e-14,101.049271 L33.4258234,101.049271 Z M56.0924903,1.07416095 L131.52148,101.104976 L98.0953912,101.104976 C85.3753659,101.104976 73.3949716,95.126757 65.7467683,84.9628778 L32.7750411,41.1462528 C32.1519369,40.3181219 32.0579712,39.2064658 32.5332655,38.2855322 L51.5392241,1.4612694 C52.4510868,-0.30549964 54.8954743,-0.513318627 56.0924903,1.07416095 Z"></path>
		</g>
</svg>

<svg preserveAspectRatio="xMidYMid" viewBox="0 0 512 203" xmlns="http://www.w3.org/2000/svg">
  <g fill="#6700EB">
    <path d="M199.668 174.987c-.744 0-1.327-.213-1.752-.638-.424-.424-.637-.955-.637-1.592V59.54c0-1.805.85-2.707 2.548-2.707h38.694c14.651 0 25.904 2.654 33.76 7.962 7.855 5.202 11.782 12.792 11.782 22.77 0 6.264-1.645 11.572-4.935 15.925-3.291 4.246-8.599 7.696-15.924 10.35-.425.106-.638.372-.638.796 0 .319.213.531.638.637 7.855 2.124 13.747 5.467 17.675 10.033 4.035 4.564 6.051 10.562 6.051 17.993 0 10.616-3.98 18.578-11.942 23.885-7.963 5.202-19.64 7.804-35.033 7.804h-40.287Zm41.083-66.721c6.688 0 12.368-1.486 17.038-4.459 4.672-2.972 7.007-7.643 7.007-14.013s-2.335-11.2-7.007-14.49c-4.564-3.291-10.88-4.937-18.949-4.937h-19.905c-1.592 0-2.389.69-2.389 2.07v33.6c0 1.486.585 2.229 1.753 2.229h22.452Zm-1.592 53.185c18.472 0 27.707-6.423 27.707-19.267 0-6.688-2.389-11.677-7.165-14.969-4.777-3.29-11.095-4.936-18.95-4.936h-21.657c-.954 0-1.645.16-2.07.478-.318.318-.478.849-.478 1.592v34.714c0 1.592.585 2.388 1.753 2.388h20.86Zm84.888 10.511c0 1.168-.266 1.963-.796 2.389-.426.424-1.275.636-2.548.636h-10.828c-1.062 0-1.805-.16-2.23-.477-.424-.426-.637-1.115-.637-2.071l.319-113.218c0-1.592.69-2.388 2.07-2.388h12.58c.66 0 2.07.005 2.07.005v115.124Zm119.64 2.585c.318.319.902.478 1.75.478h64.174c1.592 0 2.389-.743 2.389-2.23v-9.235h-46.02c-.849 0-1.275-.265-1.275-.797 0-.319.16-.69.478-1.114l44.428-58.76c1.168-1.804 1.752-3.396 1.752-4.776v-7.491s-1.207.006-1.752.006h-61.147c-1.168 0-1.752.637-1.752 1.911v7.166c0 .85.106 1.433.32 1.752.317.318.902.477 1.75.477h39.651c.955 0 1.433.266 1.433.797l-.478.955-44.11 58.758c-.848 1.168-1.432 2.07-1.75 2.708-.213.637-.32 1.433-.32 2.388v5.256c0 .849.16 1.433.478 1.751Zm-80.28-117.714h-16.88V83.93c9.321 0 16.88-7.557 16.88-16.88V56.834Zm-.003 115.116c0 1.168-.265 1.964-.797 2.389-.424.424-1.22.637-2.388.637H349.39c-1.061 0-1.804-.16-2.229-.478-.424-.424-.636-1.115-.636-2.07v-79.46c0-.85.16-1.433.477-1.751.318-.425.902-.637 1.752-.637h14.969l-.32 81.37Zm47.507-67.62c0-1.061.478-1.592 1.433-1.592h19.11c1.486 0 2.229-.637 2.229-1.91V90.634h-21.02c-.955 0-1.433-.478-1.433-1.433V61.972h-13.058c-1.061 0-1.699.743-1.91 2.23l-1.911 25c0 .955-.424 1.433-1.275 1.433h-12.738c-1.274 0-1.911.584-1.911 1.752v8.44c0 1.273.69 1.91 2.07 1.91h11.943c1.06 0 1.592.637 1.592 1.91v50.48c0 6.793 1.698 11.835 5.095 15.127 3.398 3.185 8.6 4.777 15.606 4.777 7.43 0 12.846-.265 16.243-.797 1.592-.318 2.388-1.22 2.388-2.706v-8.757h-12.103c-3.608 0-6.262-.851-7.961-2.549-1.592-1.699-2.389-4.777-2.389-9.236v-46.657Z"/>
    <path d="M33.426 101.05c12.72 0 24.7 5.978 32.348 16.14l32.972 43.818a2.7 2.7 0 0 1 .242 2.861l-19.006 36.823c-.912 1.768-3.356 1.975-4.553.388L0 101.05h33.426ZM56.092 1.073l75.43 100.031H98.094c-12.72 0-24.7-5.978-32.348-16.142L32.775 41.146a2.7 2.7 0 0 1-.242-2.86L51.54 1.46c.912-1.766 3.356-1.974 4.553-.387Z"/>
  </g>
</svg>
